X:1
T:Bottle o' the Best
M:6/8
L:1/8
K:G
D-E F| G2 F G2 D| B,2- D G2 B| A2 G F2 E| D3 c2 A| B2 c d2 B| c2 B A2 G|\
 F2 G A2 F| D3D-E F| G2 F G2 D| B,2 D G2 B| A2 G F2 E| D2 D c2 A| B2 d B2 G|\
 A2 c A2 F| G3- B3-| G3|B-B c| d2 B d2 B| G2 G c2 d| e2 c e2 c| A3 B2 c|\
 d2 B e2 d| c2 B A2 G| F2 G A2 F| D3D-E F| G2 F G2 D| B,2- D G2 B|\
 A2 G F2 E| D3 c2 A| B2 d B2 G| A2 c A2 F| G3- B3-| G2 z||
